X: 940
T: The Humours of Passage.
B:O'Neill's 940
Z:Transcribed by Tom Keays (htkeays@mailbox.syr.edu)
Z:abc 1.6
M:6/8
R:Jig
L:1/8
K:Em
e/f/ | G2 G GEG | A2 A AGA | BcB BAG | B2 E EEF |
GAG GEG | ABA AGA | BcB cBA | BEE E2 :|
|| f | g2 e faf | g2 e e2 f | gfg ege | f2 d d2 f |
g2 e faf | gfg efg | fdB cBA | BEE E2 :|


